X: 20116
T: Jimmy's Creed
R: jig
M: 6/8
K: Dmajor
|:dcA B2A|AFA DFA|BAF ABd|ede fed|
dcA B2A|AFA DFA|G2G FGF|EDB, D3:|
|:G2G FGF|EFE DFA|G2G FGB|AFD E3|
G2G FGF|EFE DEF|A,B,D E2E|FEF D3:|

